public/assets/images/icons/yellow/visibility-invisible/vcard.svg

<svg width="16" height="16" xmlns="http://www.w3.org/2000/svg" viewBox="0 0 16 16" shape-rendering="geometricPrecision" fill="#ffad00"><defs><mask id="a"><rect fill="#fff" width="100%" height="100%"/><path d="M12.997.858a4.809 4.809 0 0 0-4.253 2.563 4.81 4.81 0 0 0 8.506 0A4.812 4.812 0 0 0 12.997.858z" fill="#000"/></mask></defs><path d="M12.997 1.611a3.394 3.394 0 0 0-3.003 1.81 3.397 3.397 0 0 0 6.006 0 3.398 3.398 0 0 0-3.003-1.81zm-.001 3.396a1.587 1.587 0 1 1 0-3.174 1.587 1.587 0 0 1 0 3.174z" fill="#cb1800"/><g mask="url(#a)"><path d="M1.034 2.913v10.174h13.932V2.913H1.034zm4.079 1.445a1.78 1.78 0 0 1 1.781 1.783c0 .986-.795 1.781-1.781 1.781a1.783 1.783 0 0 1 0-3.564zm3.03 7.686H2.084v-2.002c0-.848.69-1.541 1.538-1.541h2.979c.848 0 1.542.693 1.542 1.541v2.002zm5.225-4.139H9.075V6.847h4.293v1.058zm0-2.197H9.075V4.643h4.293v1.065z"/></g></svg>

<?xml version="1.0"?><!DOCTYPE svg PUBLIC "-//W3C//DTD SVG 1.1//EN" "http://www.w3.org/Graphics/SVG/1.1/DTD/svg11.dtd"><svg width="16px" height="16px" xmlns="http://www.w3.org/2000/svg" viewBox="0 0 16 16" shape-rendering="geometricPrecision" fill="#ffad00"><defs><mask id="visibility-invisible-path"><rect fill="#fff" width="100%" height="100%"/><path d="M12.997,0.858c-1.845,0-3.446,1.039-4.253,2.563c0.808,1.523,2.408,2.562,4.253,2.562 c1.844,0,3.444-1.039,4.253-2.562C16.441,1.897,14.841,0.858,12.997,0.858z" fill="#000"/></mask></defs><g id="visibility-invisible" display="inline" fill="#cb1800"><g><g><path d="M12.997,1.611c-1.303,0-2.433,0.733-3.003,1.81c0.57,1.075,1.7,1.809,3.003,1.809c1.302,0,2.432-0.733,3.003-1.809 C15.429,2.345,14.299,1.611,12.997,1.611z M12.996,5.007c-0.876,0-1.587-0.71-1.587-1.586c0-0.877,0.711-1.588,1.587-1.588 c0.877,0,1.588,0.711,1.588,1.588C14.584,4.297,13.873,5.007,12.996,5.007z"/></g></g></g><g mask="url(#visibility-invisible-path)"><g><g><path d="M1.034,2.913v10.174h13.932V2.913H1.034z M5.113,4.358c0.986,0,1.781,0.799,1.781,1.783 c0,0.986-0.795,1.781-1.781,1.781c-0.983,0-1.781-0.795-1.781-1.781C3.332,5.157,4.13,4.358,5.113,4.358z M8.143,12.044H2.084 v-2.002c0-0.848,0.69-1.541,1.538-1.541h2.979c0.848,0,1.542,0.693,1.542,1.541V12.044z M13.368,7.905H9.075V6.847h4.293V7.905z M13.368,5.708H9.075V4.643h4.293V5.708z"/></g></g></g></svg>
